icons/circle-chevron-down.svg

<svg xmlns="http://www.w3.org/2000/svg" width="24" height="24" viewBox="0 0 24 24">
  <path d="M12,1 C18.0751322,1 23,5.92486775 23,12 C23,18.0751322 18.0751322,23 12,23 C5.92486775,23 1,18.0751322 1,12 C1,5.92486775 5.92486775,1 12,1 Z M7.38710056,9.20970461 L7.29289322,9.29289322 C6.93240926,9.65337718 6.90467972,10.2206082 7.20970461,10.6128994 L7.29289322,10.7071068 L11.2928932,14.7071068 C11.6533772,15.0675907 12.2206082,15.0953203 12.6128994,14.7902954 L12.7071068,14.7071068 L16.7071068,10.7071068 C17.0976311,10.3165825 17.0976311,9.68341751 16.7071068,9.29289322 C16.3466228,8.93240926 15.7793918,8.90467972 15.3871006,9.20970461 L15.2928932,9.29289322 L12,12.585 L8.70710678,9.29289322 C8.34662282,8.93240926 7.77939176,8.90467972 7.38710056,9.20970461 Z"/>
</svg>

<svg xmlns="http://www.w3.org/2000/svg" viewBox="0 0 24 24">
  <path d="M12 1a11 11 0 1 1 0 22 11 11 0 0 1 0-22zM7.39 9.21l-.1.08a1 1 0 0 0-.08 1.32l.08.1 4 4a1 1 0 0 0 1.32.08l.1-.08 4-4a1 1 0 0 0-1.32-1.5l-.1.08L12 12.6 8.7 9.3a1 1 0 0 0-1.31-.08z"/>
</svg>
